X: 29588
T: Nóra Críona
R: jig
M: 6/8
K: Fmajor
|:F2 F F2 G|A2 F c2 A|F2 F F2 A|G2 A (cB)G|
F2 F F2 G|A2 F c2 A|G _e e2 e|G2 A (cB)G:|
|:(G2 A cB).G|(A2 B dc).A|(G2 A cB).G|(A2 f) f2 z|
(G2 A cB).G|(A2 B dc).A|1 (G2 A cB).G|.E(dc BAG):|
[2 (G2 A cB).G|(dc).A (gf).c|(ba).f (c'b).g|ffa ffa|f2 z z2 z||

